assets/images/moon.svg

<svg height="28" viewBox="0 0 28 28" width="28" xmlns="http://www.w3.org/2000/svg" xmlns:xlink="http://www.w3.org/1999/xlink"><filter id="a"><feColorMatrix in="SourceGraphic" type="matrix" values="0 0 0 0 0.002548 0 0 0 0 0.002367 0 0 0 0 0.002367 0 0 0 1.000000 0"/></filter><g fill="none" fill-rule="evenodd" filter="url(#a)" transform="translate(-878 -22)"><g transform="translate(878.008511 22.001793)"><path d="m15.678042 7c3.0576783.7699021 5.321958 3.5385734 5.321958 6.8359161 0 3.892979-3.155972 7.048951-7.048951 7.048951-3.4923637 0-6.39144061-2.5395804-6.951049-5.872951.70293706.2525874 1.46109091.3904336 2.25174825.3904336 3.67681115 0 6.65734265-2.9805315 6.65734265-6.65734271 0-.59132867-.0771468-1.16542657-.2220419-1.71132867l-.0093987-.03367832zm1.4708811 1.90634965-.0665734-.04229371.0003916.01566434c-.072056 4.26344052-3.5503217 7.69745452-7.83099305 7.69745452-.14058741 0-.28039161-.0039161-.41980419-.010965l-.08772028-.0062657.03641958.0685314c1.00475831 1.8563659 2.92736264 3.0318388 5.03765034 3.08l.1327553.0015665c3.2440839 0 5.8741258-2.630042 5.8741258-5.8741259 0-2.0414546-1.0502937-3.87300701-2.6762517-4.92956645z" fill="#000" fill-rule="nonzero"/><rect height="27.5" rx="5" stroke="#000" stroke-opacity=".2" stroke-width=".5" width="27.5" x=".25" y=".25"/></g></g></svg>

<?xml version="1.0" encoding="UTF-8"?>
<svg width="28px" height="28px" viewBox="0 0 28 28" version="1.1" xmlns="http://www.w3.org/2000/svg" xmlns:xlink="http://www.w3.org/1999/xlink">
    <title>月亮</title>
    <defs>
        <filter id="filter-1">
            <feColorMatrix in="SourceGraphic" type="matrix" values="0 0 0 0 0.002548 0 0 0 0 0.002367 0 0 0 0 0.002367 0 0 0 1.000000 0"></feColorMatrix>
        </filter>
    </defs>
    <g id="页面-1" stroke="none" stroke-width="1" fill="none" fill-rule="evenodd">
        <g id="月亮" transform="translate(-878.000000, -22.000000)" filter="url(#filter-1)">
            <g transform="translate(878.000000, 22.000000)">
                <g id="编组-16" transform="translate(0.008511, 0.001793)">
                    <path d="M15.678042,7 C18.7357203,7.7699021 21,10.5385734 21,13.8359161 C21,17.7288951 17.844028,20.8848671 13.951049,20.8848671 C10.4586853,20.8848671 7.55960839,18.3452867 7,15.0119161 C7.70293706,15.2645035 8.46109091,15.4023497 9.25174825,15.4023497 C12.9285594,15.4023497 15.9090909,12.4218182 15.9090909,8.74500699 C15.9090909,8.15367832 15.8319441,7.57958042 15.687049,7.03367832 L15.6776503,7 L15.678042,7 Z M17.1489231,8.90634965 L17.0823497,8.86405594 L17.0827413,8.87972028 C17.0106853,13.1431608 13.5324196,16.5771748 9.25174825,16.5771748 C9.11116084,16.5771748 8.97135664,16.5732587 8.83194406,16.5662098 L8.74422378,16.5599441 L8.78064336,16.6284755 C9.78540167,18.4848414 11.708006,19.6603143 13.8182937,19.7084755 L13.951049,19.710042 C17.1951329,19.710042 19.8251748,17.08 19.8251748,13.8359161 C19.8251748,11.7944615 18.7748811,9.96290909 17.1489231,8.90634965 L17.1489231,8.90634965 Z" id="形状" fill="#000000" fill-rule="nonzero"></path>
                    <rect id="矩形备份-2" stroke-opacity="0.2" stroke="#000000" stroke-width="0.5" x="0.25" y="0.25" width="27.5" height="27.5" rx="5"></rect>
                </g>
            </g>
        </g>
    </g>
</svg>
